X: 682
T: Pianpuo niu
L: 1/8
M: 2/4
K: Eb
c2G B [I:setbarnb 1]| 
c g e f | 
g f/ e/ c e | 
c BG2 | 
G B G B | 
c g e c | 
B4 | 
c B/ c/ e c | 
B4 | 
c e c B | 
G FG2 | 
c e c B | 
c e c B | 
G FG2 | 
c/ c/ c/ c/e2 | 
G/ G/ G/ F/G2 | 
c e c/ e/ c/ B/ | 
G FG2 | 
c e c/ e/ c/ B/ | 
G FG2 | 
c e c/ e/ c/ B/ | 
c e c B | 
G FG2 | 
G> B G3/ B/ | 
G B G B | 
G B G B | 
c> B G F | 
E3C | 
EE2G | 
F D C B, | 
C4 |]

@@@ Tune index: 9556
